build/assets/images/svg/icons/login/facebook.svg

<svg width="40" height="40" viewBox="0 0 40 40" fill="none" xmlns="http://www.w3.org/2000/svg">
<rect width="40" height="40" rx="20" fill="#F4F7FB"/>
<path d="M18.2333 29V20.5539H16V17.5129H18.2333V14.9154C18.2333 12.8744 19.5526 11 22.5924 11C23.8231 11 24.7332 11.118 24.7332 11.118L24.6615 13.9578C24.6615 13.9578 23.7334 13.9487 22.7205 13.9487C21.6243 13.9487 21.4487 14.4539 21.4487 15.2924V17.5129H24.7487L24.6051 20.5539H21.4487V29H18.2333Z" fill="#203686"/>
</svg>

<svg width="40" height="40" fill="none" xmlns="http://www.w3.org/2000/svg"><rect width="40" height="40" rx="20" fill="#F4F7FB"/><path d="M18.233 29v-8.446H16v-3.041h2.233v-2.598c0-2.04 1.32-3.915 4.36-3.915 1.23 0 2.14.118 2.14.118l-.072 2.84s-.928-.01-1.94-.01c-1.097 0-1.272.506-1.272 1.344v2.22h3.3l-.144 3.042H21.45V29h-3.216z" fill="#203686"/></svg>
